X:1
T:Genevan Psalm CXVIII, 98.98 D
T:Genevan Psalm CXVIII, 98.98 D
T:Louis Bourgeois, 1541
T:Public Domain Courtesy of the Cyber Hymnal™
C:Louis Bourgeois, 1541
Z:Public Domain
Z:Courtesy of the Cyber Hymnal™
%%score ( 1 2 ) ( 3 4 )
L:1/8
Q:1/4=115
M:none
K:Ab
V:1 treble 
V:2 treble 
V:3 bass 
V:4 bass 
V:1
 [EA]4 [DF]2 [CE]2 | [EA]2 [EA]2 B2 z x3 | [Ac]4 [GB]2 [Ge]2 | [Fc]2 [=Ec]2 [FA]2 [Fd]2 | %4
 [Ec]4 [EB]4 x2 | [CA]8 | [EA]4 [DF]2 [CE]2 | [CA]2 [FA]2 B2 z x3 | [Ac]4 [GB]2 [Ge]2 | %9
 [Fd]2 [Ec]2 [EB]2 [CA]2 | [FA]4 [EG]4 | [EA]8 | [Ee]4 [Ae]2 d2 | [Ac]2 [GB]2 [FA]2 [EG]2 | %14
 F4 [CE]2 E2 | [EA]2 [EA]2 [DG]2 F2 | [EA]4 [EB]4 x4 | [Ec]8 | [FA]4 [EA]2 [GB]2 | %19
 [Ac]2 [FA]2 [Dd]2 [Ed]2 | c4 [GB]2 [Ge]2 | [Fd]2 [Ec]2 [EB]2 A2 | [EA]4 [EG]4 | [CA]8 |] %24
V:2
 x8 | x4 F3 d2 G | x8 | x8 | x10 | x8 | x8 | x4 F3 B2 G | x8 | x8 | x8 | x8 | x6 (FG) | x8 | %14
 (E2 D2) x4 | x8 | x12 | x8 | x8 | x8 | (E2 F2) x4 | x6 (CD) | x8 | x8 |] %24
V:3
 [A,,C]4 [D,A,]2 [A,,A,]2 | [C,A,]2 [A,,C]2 [D,B,]2 [B,,B,]2 x2 | (C2 D2) [E,E]2 [E,B,]2 | %3
 [F,A,]2 [C,G,]2 [D,F,]2 [C,B,]2 | B,2 z z2 G,2 x3 | [A,,A,]8 | [A,,C]4 [D,A,]2 [A,,A,]2 | %7
 [F,A,]2 [F,C]2 [D,B,]2 [B,,B,]2 x2 | (C2 D2) [E,E]2 [E,B,]2 | [F,A,]2 A,2 [E,G,]2 [F,A,]2 | %10
 [D,D]4 [E,B,]4 | [A,,C]8 | [A,C]4 C2 [B,D]2 | [A,D]2 [E,D]2 [F,C]2 [C,C]2 | %14
 [D,A,]4 [A,,A,]2 [E,G,]2 | [C,A,]2 [A,,C]2 [B,,B,]2 [D,B,]2 | (C2 z2) z2 G,2 x4 | [A,,A,]8 | %18
 [D,A,]4 [C,A,]2 [B,,D]2 | [A,,C]2 [D,D]2 [F,A,]2 [G,B,]2 | A,4 [E,B,]2 [C,C]2 | %21
 [D,A,]2 A,2 [E,G,]2 [F,A,]2 | [E,B,]4 [E,B,]4 | [A,,A,]8 |] %24
V:4
 x8 | x10 | E,4 x4 | x8 | C,3 A,2 D, E,4 | x8 | x8 | x10 | E,4 x4 | x8 | x8 | x8 | x8 | x8 | x8 | %15
 x8 | C,4 A,4 E,4 | x8 | x8 | x8 | x8 | x8 | x8 | x8 |] %24

